X:44
T:Vals efter Simons Per
%O:Sweden
R:Vals
Z:Bob Wyttenbach 5/30/03 from Andrea Hoag for NFF 2003
M:3/4
L:1/8
%Q:1/4=160
K:EAEO %Transposed from DM
P:A
fa|g4f2|e2^d2e2|^def2e2|^de fg af|
g4f2|e2^d2e2|^dfb2d2|[1e4:|[2e6||
P:B
B2gg gg|g2f2e2|e2ab ag|f2g2a2|
bc' baTg2|ea gf e^d|eg fB ^df|[1e6:|[2e4-e:|
